Simply-Orange-Circles/scalable/apps/wireshark.svg

<?xml version="1.0" encoding="UTF-8" standalone="no"?><svg xmlns:dc="http://purl.org/dc/elements/1.1/" xmlns:cc="http://creativecommons.org/ns#" xmlns:rdf="http://www.w3.org/1999/02/22-rdf-syntax-ns#" xmlns="http://www.w3.org/2000/svg" width="48" height="48" viewBox="0 0 12.7 12.7"><metadata><rdf:RDF><cc:Work><dc:format>image/svg+xml</dc:format><dc:type rdf:resource="http://purl.org/dc/dcmitype/StillImage"/><dc:title/></cc:Work></rdf:RDF></metadata><path d="M6.34.07a6.29 6.29 0 0 0-6.29 6.3 6.29 6.29 0 0 0 6.3 6.28 6.29 6.29 0 0 0 6.28-6.29A6.29 6.29 0 0 0 6.34.07zm-.01.94a5.4 5.4 0 0 1 5.4 5.4 5.4 5.4 0 0 1-.34 1.87H8.67c-.1-.23-1.28-2.92.13-5.05a.28.28 0 0 0 .03-.21.28.28 0 0 0-.06-.12.28.28 0 0 0-.22-.09 5.2 5.2 0 0 0-4.71 2.9c-.7 1.3-.8 2.37-.81 2.57H1.26a5.4 5.4 0 0 1-.34-1.86A5.4 5.4 0 0 1 6.32 1zm1.83 2.4c-1.22 2.45.06 5.26.06 5.26l.04.04c.04.07.12.11.2.12h2.7a5.4 5.4 0 0 1-4.83 3 5.4 5.4 0 0 1-4.84-3h1.75c.08 0 .15-.04.2-.1a.28.28 0 0 0 .06-.12v-.03s.13-1.3.82-2.6a4.62 4.62 0 0 1 3.84-2.56z" fill="#ff7f2a"/></svg>

<?xml version="1.0" encoding="UTF-8" standalone="no"?>
<svg
   xmlns:dc="http://purl.org/dc/elements/1.1/"
   xmlns:cc="http://creativecommons.org/ns#"
   xmlns:rdf="http://www.w3.org/1999/02/22-rdf-syntax-ns#"
   xmlns:svg="http://www.w3.org/2000/svg"
   xmlns="http://www.w3.org/2000/svg"
   xmlns:sodipodi="http://sodipodi.sourceforge.net/DTD/sodipodi-0.dtd"
   xmlns:inkscape="http://www.inkscape.org/namespaces/inkscape"
   width="48"
   height="48"
   viewBox="0 0 12.7 12.7"
   version="1.1"
   id="svg6"
   sodipodi:docname="wireshark.svg"
   inkscape:version="0.92.4 (5da689c313, 2019-01-14)">
  <defs
     id="defs10" />
  <sodipodi:namedview
     pagecolor="#ffffff"
     bordercolor="#666666"
     borderopacity="1"
     objecttolerance="10"
     gridtolerance="10"
     guidetolerance="10"
     inkscape:pageopacity="0"
     inkscape:pageshadow="2"
     inkscape:window-width="1087"
     inkscape:window-height="480"
     id="namedview8"
     showgrid="false"
     inkscape:zoom="4.9166667"
     inkscape:cx="2.1355932"
     inkscape:cy="24"
     inkscape:window-x="0"
     inkscape:window-y="25"
     inkscape:window-maximized="0"
     inkscape:current-layer="svg6" />
  <metadata
     id="metadata2">
    <rdf:RDF>
      <cc:Work>
        <dc:format>image/svg+xml</dc:format>
        <dc:type
           rdf:resource="http://purl.org/dc/dcmitype/StillImage" />
        <dc:title></dc:title>
      </cc:Work>
    </rdf:RDF>
  </metadata>
  <path
     d="M 6.34,0.07 A 6.29,6.29 0 0 0 0.05,6.37 6.29,6.29 0 0 0 6.35,12.65 6.29,6.29 0 0 0 12.63,6.36 6.29,6.29 0 0 0 6.34,0.07 Z M 6.33,1.01 a 5.4,5.4 0 0 1 5.4,5.4 5.4,5.4 0 0 1 -0.34,1.87 H 8.67 C 8.57,8.05 7.39,5.36 8.8,3.23 A 0.28,0.28 0 0 0 8.83,3.02 0.28,0.28 0 0 0 8.77,2.9 0.28,0.28 0 0 0 8.55,2.81 5.2,5.2 0 0 0 3.84,5.71 C 3.14,7.01 3.04,8.08 3.03,8.28 H 1.26 A 5.4,5.4 0 0 1 0.92,6.42 5.4,5.4 0 0 1 6.32,1 Z m 1.83,2.4 C 6.94,5.86 8.22,8.67 8.22,8.67 l 0.04,0.04 c 0.04,0.07 0.12,0.11 0.2,0.12 h 2.7 a 5.4,5.4 0 0 1 -4.83,3 5.4,5.4 0 0 1 -4.84,-3 h 1.75 c 0.08,0 0.15,-0.04 0.2,-0.1 A 0.28,0.28 0 0 0 3.5,8.61 V 8.58 c 0,0 0.13,-1.3 0.82,-2.6 A 4.62,4.62 0 0 1 8.16,3.42 Z"
     id="path4"
     inkscape:connector-curvature="0"
     style="fill:#ff7f2a" />
</svg>
